neru-dark-classic/22x22/devices/media-flash.svg

<?xml version="1.0" encoding="UTF-8" standalone="no"?>
<svg
   xmlns:dc="http://purl.org/dc/elements/1.1/"
   xmlns:cc="http://creativecommons.org/ns#"
   xmlns:rdf="http://www.w3.org/1999/02/22-rdf-syntax-ns#"
   xmlns:svg="http://www.w3.org/2000/svg"
   xmlns="http://www.w3.org/2000/svg"
   xmlns:sodipodi="http://sodipodi.sourceforge.net/DTD/sodipodi-0.dtd"
   xmlns:inkscape="http://www.inkscape.org/namespaces/inkscape"
   width="22"
   height="22"
   version="1.1"
   viewBox="0 0 16 16"
   id="svg7"
   sodipodi:docname="media-flash.svg"
   inkscape:version="0.92.1 r">
  <metadata
     id="metadata11">
    <rdf:RDF>
      <cc:Work
         rdf:about="">
        <dc:format>image/svg+xml</dc:format>
        <dc:type
           rdf:resource="http://purl.org/dc/dcmitype/StillImage" />
      </cc:Work>
    </rdf:RDF>
  </metadata>
  <sodipodi:namedview
     pagecolor="#ffffff"
     bordercolor="#666666"
     borderopacity="1"
     objecttolerance="10"
     gridtolerance="10"
     guidetolerance="10"
     inkscape:pageopacity="0"
     inkscape:pageshadow="2"
     inkscape:window-width="769"
     inkscape:window-height="480"
     id="namedview9"
     showgrid="false"
     inkscape:zoom="10.727273"
     inkscape:cx="-7.6906777"
     inkscape:cy="11"
     inkscape:window-x="0"
     inkscape:window-y="0"
     inkscape:window-maximized="0"
     inkscape:current-layer="svg7" />
  <defs
     id="defs3">
    <style
       id="current-color-scheme"
       type="text/css">
   .ColorScheme-Text { color:#d3dae3; } .ColorScheme-Highlight { color:#5294e2; }
  </style>
  </defs>
  <path
     style="color:#d3dae3;fill:currentColor;stroke-width:0.83116883"
     class="ColorScheme-Text"
     d="m 3.012987,12.987013 c 0,0.460468 0.3707013,0.831169 0.8311688,0.831169 h 1.6623376 v -0.831169 h 4.9870136 v 0.831169 h 1.662337 c 0.460468,0 0.831169,-0.370701 0.831169,-0.831169 V 3.012987 c 0,-0.4604675 -0.370701,-0.8311688 -0.831169,-0.8311688 H 6.3376623 L 3.012987,5.5064935 Z M 7.168831,3.8441559 H 7.9999999 V 6.3376623 H 7.168831 Z m 1.6623377,0 H 9.6623376 V 6.3376623 H 8.8311687 Z m 1.6623383,0 h 0.831168 V 6.3376623 H 10.493507 Z M 5.5064934,4.6753246 H 6.3376623 V 6.3376623 H 5.5064934 Z"
     id="path5"
     inkscape:connector-curvature="0" />
</svg>

<svg xmlns="http://www.w3.org/2000/svg" width="22" height="22" version="1.1" viewBox="0 0 16 16" id="svg7"><defs id="defs3"><style id="current-color-scheme" type="text/css"></style></defs><path d="M3.013 12.987c0 .46.37.831.831.831h1.662v-.831h4.988v.831h1.662a.83.83 0 0 0 .831-.831V3.013a.83.83 0 0 0-.831-.831H6.338L3.013 5.506zm4.156-9.143H8v2.494h-.831zm1.662 0h.831v2.494h-.83zm1.663 0h.83v2.494h-.83zm-4.988.831h.832v1.663h-.832z" id="path5" color="#d3dae3" fill="currentColor" stroke-width=".831"/></svg>
